X: 52
T:Old Aunt Jenny with Her Nightcap On
S:https://tunearch.org/wiki/Old_Aunt_Jenny_with_Her_Night-Cap_On_(3)
M:C|
L:1/8
K:G
g2 ga g2 ag|fded d3e|g2 ga g2 dc|BGAG G2 (ef)|
g2 ga g2 ag|fded d2 ef|g2b2g2 d2 |BGAG G2 GG G2||
e2d2 BGBd|e2e2 G2 GB|e2 ed BBAGB|AG2G G2 (Bc)|
e2d2 BGBd|e2d2 G2 GB|e2e2 dBGB|AG G G2-G2||

